public/logo.svg

<?xml version="1.0" encoding="utf-8" ?>
<svg baseProfile="full" height="1536" version="1.1" viewBox="0 0 1536 1536" width="1536" xmlns="http://www.w3.org/2000/svg" xmlns:ev="http://www.w3.org/2001/xml-events" xmlns:xlink="http://www.w3.org/1999/xlink"><defs /><g fill="#62191C" stroke="none"><path d="M 1085.00,758.00 L 1079.00,756.00 L 1063.00,755.00 L 1062.00,754.00 L 1050.00,754.00 L 1049.00,753.00 L 996.00,753.00 L 995.00,754.00 L 985.00,754.00 L 984.00,755.00 L 967.00,756.00 L 966.00,757.00 L 949.00,759.00 L 909.00,768.00 L 868.00,781.00 L 865.00,783.00 L 847.00,789.00 L 835.00,795.00 L 830.00,796.00 L 750.00,835.00 L 748.00,837.00 L 673.00,875.00 L 671.00,875.00 L 640.00,890.00 L 607.00,903.00 L 559.00,918.00 L 555.00,918.00 L 542.00,922.00 L 517.00,927.00 L 511.00,927.00 L 510.00,928.00 L 490.00,930.00 L 489.00,931.00 L 481.00,931.00 L 480.00,932.00 L 470.00,932.00 L 469.00,933.00 L 428.00,934.00 L 427.00,935.00 L 418.00,935.00 L 417.00,936.00 L 421.00,938.00 L 431.00,939.00 L 437.00,941.00 L 467.00,944.00 L 468.00,945.00 L 483.00,945.00 L 484.00,946.00 L 537.00,945.00 L 538.00,944.00 L 568.00,941.00 L 579.00,938.00 L 584.00,938.00 L 593.00,935.00 L 597.00,935.00 L 623.00,928.00 L 653.00,917.00 L 655.00,919.00 L 653.00,990.00 L 652.00,991.00 L 652.00,1002.00 L 651.00,1003.00 L 650.00,1018.00 L 644.00,1039.00 L 637.00,1048.00 L 629.00,1052.00 L 611.00,1054.00 L 610.00,1055.00 L 594.00,1055.00 L 591.00,1056.00 L 588.00,1059.00 L 588.00,1065.00 L 590.00,1067.00 L 595.00,1069.00 L 649.00,1069.00 L 650.00,1068.00 L 681.00,1068.00 L 682.00,1067.00 L 727.00,1067.00 L 728.00,1068.00 L 764.00,1068.00 L 765.00,1069.00 L 834.00,1069.00 L 838.00,1068.00 L 842.00,1064.00 L 842.00,1059.00 L 839.00,1056.00 L 805.00,1054.00 L 804.00,1053.00 L 795.00,1053.00 L 794.00,1052.00 L 784.00,1051.00 L 778.00,1049.00 L 772.00,1045.00 L 768.00,1041.00 L 763.00,1032.00 L 758.00,1008.00 L 757.00,981.00 L 756.00,980.00 L 756.00,960.00 L 755.00,959.00 L 755.00,871.00 L 856.00,819.00 L 858.00,819.00 L 897.00,801.00 L 929.00,790.00 L 932.00,788.00 L 965.00,778.00 L 998.00,770.00 L 1003.00,770.00 L 1008.00,768.00 L 1038.00,764.00 L 1039.00,763.00 L 1084.00,759.00 Z" /><path d="M 1264.00,687.00 L 1262.00,683.00 L 1253.00,682.00 L 1247.00,680.00 L 1240.00,680.00 L 1239.00,681.00 L 1242.00,707.00 L 1243.00,708.00 L 1243.00,716.00 L 1244.00,717.00 L 1245.00,740.00 L 1246.00,741.00 L 1246.00,794.00 L 1245.00,795.00 L 1244.00,818.00 L 1243.00,819.00 L 1243.00,827.00 L 1242.00,828.00 L 1240.00,848.00 L 1228.00,900.00 L 1216.00,936.00 L 1204.00,965.00 L 1177.00,1016.00 L 1157.00,1046.00 L 1123.00,1088.00 L 1088.00,1123.00 L 1062.00,1145.00 L 1019.00,1175.00 L 995.00,1189.00 L 967.00,1203.00 L 941.00,1214.00 L 896.00,1229.00 L 852.00,1239.00 L 827.00,1242.00 L 826.00,1243.00 L 792.00,1245.00 L 791.00,1246.00 L 729.00,1245.00 L 728.00,1244.00 L 717.00,1244.00 L 716.00,1243.00 L 709.00,1243.00 L 708.00,1242.00 L 682.00,1239.00 L 677.00,1237.00 L 667.00,1236.00 L 639.00,1229.00 L 602.00,1217.00 L 566.00,1202.00 L 516.00,1175.00 L 472.00,1144.00 L 447.00,1123.00 L 413.00,1089.00 L 391.00,1063.00 L 360.00,1019.00 L 345.00,993.00 L 333.00,969.00 L 321.00,941.00 L 314.00,919.00 L 312.00,916.00 L 300.00,871.00 L 288.00,869.00 L 279.00,866.00 L 276.00,866.00 L 275.00,870.00 L 287.00,917.00 L 305.00,966.00 L 325.00,1007.00 L 347.00,1044.00 L 374.00,1081.00 L 399.00,1110.00 L 425.00,1136.00 L 443.00,1152.00 L 478.00,1179.00 L 526.00,1209.00 L 567.00,1229.00 L 618.00,1248.00 L 664.00,1260.00 L 669.00,1260.00 L 699.00,1266.00 L 727.00,1268.00 L 728.00,1269.00 L 741.00,1269.00 L 742.00,1270.00 L 793.00,1270.00 L 794.00,1269.00 L 828.00,1267.00 L 829.00,1266.00 L 836.00,1266.00 L 837.00,1265.00 L 855.00,1263.00 L 900.00,1253.00 L 946.00,1238.00 L 977.00,1225.00 L 1005.00,1211.00 L 1039.00,1191.00 L 1077.00,1164.00 L 1112.00,1134.00 L 1144.00,1101.00 L 1176.00,1061.00 L 1202.00,1021.00 L 1224.00,979.00 L 1245.00,926.00 L 1245.00,923.00 L 1249.00,913.00 L 1254.00,892.00 L 1256.00,888.00 L 1266.00,835.00 L 1268.00,807.00 L 1269.00,806.00 L 1269.00,790.00 L 1270.00,789.00 L 1270.00,746.00 L 1269.00,745.00 L 1269.00,729.00 L 1268.00,728.00 L 1268.00,718.00 L 1267.00,717.00 Z" /><path d="M 1454.00,726.00 L 1408.00,698.00 L 1361.00,674.00 L 1331.00,661.00 L 1302.00,651.00 L 1299.00,649.00 L 1256.00,636.00 L 1252.00,636.00 L 1225.00,629.00 L 1220.00,629.00 L 1209.00,626.00 L 1203.00,626.00 L 1189.00,623.00 L 1182.00,623.00 L 1181.00,622.00 L 1145.00,620.00 L 1144.00,619.00 L 1089.00,619.00 L 1088.00,620.00 L 1062.00,621.00 L 1061.00,622.00 L 1054.00,622.00 L 1053.00,623.00 L 1046.00,623.00 L 1045.00,624.00 L 1038.00,624.00 L 1037.00,625.00 L 1013.00,628.00 L 967.00,638.00 L 963.00,640.00 L 931.00,648.00 L 867.00,670.00 L 803.00,696.00 L 757.00,717.00 L 755.00,715.00 L 755.00,519.00 L 759.00,515.00 L 798.00,515.00 L 799.00,516.00 L 888.00,517.00 L 889.00,518.00 L 897.00,518.00 L 906.00,520.00 L 922.00,527.00 L 934.00,538.00 L 939.00,551.00 L 940.00,574.00 L 942.00,581.00 L 944.00,583.00 L 951.00,583.00 L 954.00,581.00 L 956.00,576.00 L 957.00,556.00 L 958.00,555.00 L 958.00,540.00 L 959.00,539.00 L 960.00,505.00 L 966.00,478.00 L 966.00,469.00 L 963.00,466.00 L 957.00,466.00 L 950.00,470.00 L 942.00,472.00 L 917.00,473.00 L 916.00,474.00 L 677.00,474.00 L 676.00,473.00 L 635.00,473.00 L 634.00,472.00 L 584.00,472.00 L 578.00,474.00 L 575.00,478.00 L 575.00,481.00 L 578.00,485.00 L 581.00,486.00 L 611.00,487.00 L 629.00,491.00 L 637.00,495.00 L 644.00,501.00 L 649.00,509.00 L 652.00,519.00 L 653.00,535.00 L 654.00,536.00 L 654.00,589.00 L 655.00,590.00 L 655.00,761.00 L 653.00,763.00 L 641.00,767.00 L 626.00,774.00 L 621.00,775.00 L 616.00,778.00 L 572.00,793.00 L 569.00,795.00 L 566.00,795.00 L 530.00,807.00 L 526.00,807.00 L 519.00,810.00 L 515.00,810.00 L 507.00,813.00 L 503.00,813.00 L 489.00,817.00 L 463.00,821.00 L 462.00,822.00 L 450.00,823.00 L 449.00,824.00 L 413.00,827.00 L 412.00,828.00 L 355.00,829.00 L 354.00,828.00 L 336.00,828.00 L 335.00,827.00 L 324.00,827.00 L 323.00,826.00 L 298.00,824.00 L 263.00,817.00 L 258.00,817.00 L 232.00,810.00 L 228.00,810.00 L 221.00,807.00 L 200.00,802.00 L 194.00,799.00 L 191.00,799.00 L 156.00,787.00 L 128.00,775.00 L 123.00,774.00 L 81.00,755.00 L 79.00,757.00 L 114.00,780.00 L 156.00,804.00 L 158.00,804.00 L 176.00,814.00 L 178.00,814.00 L 205.00,827.00 L 251.00,844.00 L 254.00,844.00 L 264.00,848.00 L 282.00,852.00 L 290.00,855.00 L 343.00,865.00 L 373.00,867.00 L 374.00,868.00 L 387.00,868.00 L 388.00,869.00 L 432.00,869.00 L 433.00,868.00 L 449.00,868.00 L 450.00,867.00 L 479.00,865.00 L 480.00,864.00 L 511.00,860.00 L 536.00,854.00 L 540.00,854.00 L 549.00,851.00 L 553.00,851.00 L 557.00,849.00 L 592.00,840.00 L 631.00,827.00 L 686.00,806.00 L 691.00,803.00 L 703.00,799.00 L 710.00,795.00 L 740.00,783.00 L 783.00,763.00 L 792.00,760.00 L 810.00,751.00 L 826.00,745.00 L 835.00,740.00 L 924.00,704.00 L 992.00,682.00 L 1024.00,674.00 L 1033.00,673.00 L 1043.00,670.00 L 1048.00,670.00 L 1053.00,668.00 L 1065.00,667.00 L 1071.00,665.00 L 1103.00,662.00 L 1104.00,661.00 L 1115.00,661.00 L 1116.00,660.00 L 1133.00,660.00 L 1134.00,659.00 L 1181.00,659.00 L 1182.00,660.00 L 1220.00,662.00 L 1221.00,663.00 L 1256.00,667.00 L 1287.00,673.00 L 1296.00,676.00 L 1300.00,676.00 L 1348.00,689.00 L 1401.00,707.00 L 1446.00,725.00 L 1451.00,728.00 L 1453.00,728.00 Z" /><path d="M 1247.00,616.00 L 1231.00,572.00 L 1211.00,530.00 L 1191.00,496.00 L 1164.00,458.00 L 1134.00,423.00 L 1100.00,390.00 L 1061.00,359.00 L 1031.00,339.00 L 1005.00,324.00 L 979.00,311.00 L 951.00,299.00 L 900.00,282.00 L 896.00,282.00 L 880.00,277.00 L 855.00,272.00 L 837.00,270.00 L 836.00,269.00 L 829.00,269.00 L 828.00,268.00 L 794.00,266.00 L 793.00,265.00 L 741.00,265.00 L 740.00,266.00 L 707.00,268.00 L 706.00,269.00 L 699.00,269.00 L 692.00,271.00 L 680.00,272.00 L 655.00,277.00 L 650.00,279.00 L 646.00,279.00 L 639.00,282.00 L 635.00,282.00 L 597.00,294.00 L 558.00,310.00 L 512.00,334.00 L 478.00,356.00 L 443.00,383.00 L 425.00,399.00 L 399.00,425.00 L 374.00,454.00 L 347.00,491.00 L 325.00,528.00 L 305.00,569.00 L 287.00,618.00 L 275.00,664.00 L 275.00,669.00 L 270.00,692.00 L 269.00,706.00 L 268.00,707.00 L 266.00,741.00 L 265.00,742.00 L 265.00,793.00 L 266.00,794.00 L 266.00,803.00 L 270.00,805.00 L 280.00,807.00 L 286.00,807.00 L 287.00,808.00 L 290.00,807.00 L 289.00,744.00 L 290.00,743.00 L 290.00,730.00 L 291.00,729.00 L 291.00,717.00 L 292.00,716.00 L 293.00,701.00 L 303.00,650.00 L 312.00,622.00 L 312.00,619.00 L 314.00,616.00 L 321.00,594.00 L 332.00,568.00 L 345.00,542.00 L 360.00,516.00 L 381.00,485.00 L 399.00,462.00 L 413.00,446.00 L 447.00,412.00 L 477.00,387.00 L 516.00,360.00 L 544.00,344.00 L 589.00,323.00 L 632.00,308.00 L 672.00,298.00 L 677.00,298.00 L 702.00,293.00 L 708.00,293.00 L 709.00,292.00 L 727.00,291.00 L 728.00,290.00 L 743.00,290.00 L 744.00,289.00 L 790.00,289.00 L 791.00,290.00 L 805.00,290.00 L 806.00,291.00 L 817.00,291.00 L 818.00,292.00 L 840.00,294.00 L 881.00,302.00 L 910.00,311.00 L 913.00,311.00 L 916.00,313.00 L 919.00,313.00 L 958.00,328.00 L 995.00,346.00 L 1027.00,365.00 L 1058.00,387.00 L 1078.00,403.00 L 1111.00,434.00 L 1131.00,456.00 L 1148.00,477.00 L 1177.00,519.00 L 1204.00,570.00 L 1204.00,572.00 L 1211.00,586.00 L 1212.00,591.00 L 1215.00,596.00 L 1221.00,614.00 L 1243.00,619.00 L 1246.00,619.00 Z" /></g></svg>

<svg xmlns="http://www.w3.org/2000/svg" width="1536" height="1536" baseProfile="full" viewBox="0 0 1536 1536"><g fill="#62191c"><path d="m1085 758-6-2-16-1-1-1h-12l-1-1h-53l-1 1h-10l-1 1-17 1-1 1-17 2-40 9-41 13-3 2-18 6-12 6-5 1-80 39-2 2-75 38h-2l-31 15-33 13-48 15h-4l-13 4-25 5h-6l-1 1-20 2-1 1h-8l-1 1h-10l-1 1-41 1-1 1h-9l-1 1 4 2 10 1 6 2 30 3 1 1h15l1 1 53-1 1-1 30-3 11-3h5l9-3h4l26-7 30-11 2 2-2 71-1 1v11l-1 1-1 15-6 21-7 9-8 4-18 2-1 1h-16l-3 1-3 3v6l2 2 5 2h54l1-1h31l1-1h45l1 1h36l1 1h69l4-1 4-4v-5l-3-3-34-2-1-1h-9l-1-1-10-1-6-2-6-4-4-4-5-9-5-24-1-27-1-1v-20l-1-1v-88l101-52h2l39-18 32-11 3-2 33-10 33-8h5l5-2 30-4 1-1 45-4Z"/><path d="m1264 687-2-4-9-1-6-2h-7l-1 1 3 26 1 1v8l1 1 1 23 1 1v53l-1 1-1 23-1 1v8l-1 1-2 20-12 52-12 36-12 29-27 51-20 30-34 42-35 35-26 22-43 30-24 14-28 14-26 11-45 15-44 10-25 3-1 1-34 2-1 1-62-1-1-1h-11l-1-1h-7l-1-1-26-3-5-2-10-1-28-7-37-12-36-15-50-27-44-31-25-21-34-34-22-26-31-44-15-26-12-24-12-28-7-22-2-3-12-45-12-2-9-3h-3l-1 4 12 47 18 49 20 41 22 37 27 37 25 29 26 26 18 16 35 27 48 30 41 20 51 19 46 12h5l30 6 28 2 1 1h13l1 1h51l1-1 34-2 1-1h7l1-1 18-2 45-10 46-15 31-13 28-14 34-20 38-27 35-30 32-33 32-40 26-40 22-42 21-53v-3l4-10 5-21 2-4 10-53 2-28 1-1v-16l1-1v-43l-1-1v-16l-1-1v-10l-1-1Z"/><path d="m1454 726-46-28-47-24-30-13-29-10-3-2-43-13h-4l-27-7h-5l-11-3h-6l-14-3h-7l-1-1-36-2-1-1h-55l-1 1-26 1-1 1h-7l-1 1h-7l-1 1h-7l-1 1-24 3-46 10-4 2-32 8-64 22-64 26-46 21-2-2V519l4-4h39l1 1 89 1 1 1h8l9 2 16 7 12 11 5 13 1 23 2 7 2 2h7l3-2 2-5 1-20 1-1v-15l1-1 1-34 6-27v-9l-3-3h-6l-7 4-8 2-25 1-1 1H677l-1-1h-41l-1-1h-50l-6 2-3 4v3l3 4 3 1 30 1 18 4 8 4 7 6 5 8 3 10 1 16 1 1v53l1 1v171l-2 2-12 4-15 7-5 1-5 3-44 15-3 2h-3l-36 12h-4l-7 3h-4l-8 3h-4l-14 4-26 4-1 1-12 1-1 1-36 3-1 1-57 1-1-1h-18l-1-1h-11l-1-1-25-2-35-7h-5l-26-7h-4l-7-3-21-5-6-3h-3l-35-12-28-12-5-1-42-19-2 2 35 23 42 24h2l18 10h2l27 13 46 17h3l10 4 18 4 8 3 53 10 30 2 1 1h13l1 1h44l1-1h16l1-1 29-2 1-1 31-4 25-6h4l9-3h4l4-2 35-9 39-13 55-21 5-3 12-4 7-4 30-12 43-20 9-3 18-9 16-6 9-5 89-36 68-22 32-8 9-1 10-3h5l5-2 12-1 6-2 32-3 1-1h11l1-1h17l1-1h47l1 1 38 2 1 1 35 4 31 6 9 3h4l48 13 53 18 45 18 5 3h2Z"/><path d="m1247 616-16-44-20-42-20-34-27-38-30-35-34-33-39-31-30-20-26-15-26-13-28-12-51-17h-4l-16-5-25-5-18-2-1-1h-7l-1-1-34-2-1-1h-52l-1 1-33 2-1 1h-7l-7 2-12 1-25 5-5 2h-4l-7 3h-4l-38 12-39 16-46 24-34 22-35 27-18 16-26 26-25 29-27 37-22 37-20 41-18 49-12 46v5l-5 23-1 14-1 1-2 34-1 1v51l1 1v9l4 2 10 2h6l1 1 3-1-1-63 1-1v-13l1-1v-12l1-1 1-15 10-51 9-28v-3l2-3 7-22 11-26 13-26 15-26 21-31 18-23 14-16 34-34 30-25 39-27 28-16 45-21 43-15 40-10h5l25-5h6l1-1 18-1 1-1h15l1-1h46l1 1h14l1 1h11l1 1 22 2 41 8 29 9h3l3 2h3l39 15 37 18 32 19 31 22 20 16 33 31 20 22 17 21 29 42 27 51v2l7 14 1 5 3 5 6 18 22 5h3Z"/></g></svg>
